X: 1
T: Graovsko Horo   [A]
O: Bulgaria
Z: 2015 John Chambers <jc:trillian.mit.edu>
M: 2/4
L: 1/16
P: AB ABC ABC A
Q: 3/16 2/16 1/16 2/16
K: _B^f^c^	% A hijaz
"A"\
|: "A"AcBA AEFG | "A"AEFG ~A2AE | "A"~c2BA "(Gm)"AEFG |\
[1,3 "A"~A2AE ~A2AE :|[2,4 "A"~A2AE A2z2 :|
w: ~
"B"\
|:\
"A"de3 ed~c2 | cEAB "A"c2cE |\
[1,3 "A"ed~c2 cEAB | "A"~c2cE ~c2cE :|\
[2,4 "A"ed~c2 "Gm"cB~A2 | "A"AEFG A2z2 :| [K:=B=c]
w: ~
%Q: 1/8 1/8 1/8 1/8
K: Dmix
"C"\
|:\
"D"FGAB ~c2cB | "G"ABBG "D"~A2AE | "D"~c2cB "G"ABBG |\
[1,3 "D"~A2AE ^cddE :|[2,4 "D"~A2Ad A2z2 :|
w: D*** | G*** Am | D** G | D | D

%%sep 1 0 500
%%sep 1 0 500


